img/Frame 119.svg

<svg width="178" height="49" viewBox="0 0 178 49" fill="none" xmlns="http://www.w3.org/2000/svg">
<g clip-path="url(#clip0_514_1003)">
<path d="M4.416 13.216C3.84 13.216 3.296 13.104 2.784 12.88C2.272 12.656 1.82667 12.3387 1.448 11.928C1.07467 11.5173 0.805333 11.032 0.64 10.472L2.504 9.968C2.63733 10.4267 2.88 10.7813 3.232 11.032C3.58933 11.2773 3.98133 11.3973 4.408 11.392C4.78667 11.392 5.12533 11.304 5.424 11.128C5.72267 10.952 5.95733 10.7147 6.128 10.416C6.29867 10.112 6.384 9.77333 6.384 9.4C6.384 8.82933 6.2 8.352 5.832 7.968C5.464 7.584 4.98933 7.392 4.408 7.392C4.232 7.392 4.05867 7.416 3.888 7.464C3.72267 7.512 3.56267 7.57867 3.408 7.664L2.528 6.144L6.4 2.832L6.568 3.296H1.088V1.48H8.152V3.304L5.04 6.296L5.024 5.728C5.72267 5.776 6.31733 5.97067 6.808 6.312C7.304 6.65333 7.68267 7.09333 7.944 7.632C8.21067 8.17067 8.344 8.76 8.344 9.4C8.344 10.1253 8.16533 10.776 7.808 11.352C7.456 11.928 6.98133 12.384 6.384 12.72C5.792 13.0507 5.136 13.216 4.416 13.216ZM10.0969 12.984V11.304L15.0249 6.912C15.4089 6.57067 15.6755 6.248 15.8249 5.944C15.9742 5.64 16.0489 5.34667 16.0489 5.064C16.0489 4.68 15.9662 4.33867 15.8009 4.04C15.6355 3.736 15.4062 3.496 15.1129 3.32C14.8249 3.144 14.4915 3.056 14.1129 3.056C13.7129 3.056 13.3582 3.14933 13.0489 3.336C12.7449 3.51733 12.5075 3.76 12.3369 4.064C12.1662 4.368 12.0862 4.696 12.0969 5.048H10.1129C10.1129 4.28 10.2835 3.61067 10.6249 3.04C10.9715 2.46933 11.4462 2.02667 12.0489 1.712C12.6569 1.39733 13.3582 1.24 14.1529 1.24C14.8889 1.24 15.5502 1.40533 16.1369 1.736C16.7235 2.06133 17.1849 2.51467 17.5209 3.096C17.8569 3.672 18.0249 4.336 18.0249 5.088C18.0249 5.63733 17.9502 6.09867 17.8009 6.472C17.6515 6.84533 17.4275 7.18933 17.1289 7.504C16.8355 7.81867 16.4702 8.168 16.0329 8.552L12.5369 11.648L12.3609 11.168H18.0249V12.984H10.0969ZM25.0121 13C24.4415 13.1067 23.8815 13.152 23.3321 13.136C22.7881 13.1253 22.3001 13.0267 21.8681 12.84C21.4361 12.648 21.1081 12.3467 20.8841 11.936C20.6868 11.5627 20.5828 11.1813 20.5721 10.792C20.5615 10.4027 20.5561 9.96267 20.5561 9.472V1.96H22.4761V9.36C22.4761 9.70667 22.4788 10.0107 22.4841 10.272C22.4948 10.5333 22.5508 10.7467 22.6521 10.912C22.8441 11.232 23.1508 11.4107 23.5721 11.448C23.9935 11.4853 24.4735 11.464 25.0121 11.384V13ZM18.9881 5.872V4.36H25.0121V5.872H18.9881ZM30.2485 13.24C29.3845 13.24 28.6298 13.0453 27.9845 12.656C27.3392 12.2667 26.8378 11.7307 26.4805 11.048C26.1285 10.36 25.9525 9.57067 25.9525 8.68C25.9525 7.77333 26.1338 6.97867 26.4965 6.296C26.8592 5.61333 27.3632 5.08 28.0085 4.696C28.6538 4.312 29.4005 4.12 30.2485 4.12C31.1178 4.12 31.8752 4.31467 32.5205 4.704C33.1658 5.09333 33.6672 5.632 34.0245 6.32C34.3818 7.00267 34.5605 7.78933 34.5605 8.68C34.5605 9.576 34.3792 10.368 34.0165 11.056C33.6592 11.7387 33.1578 12.2747 32.5125 12.664C31.8672 13.048 31.1125 13.24 30.2485 13.24ZM30.2485 11.432C31.0165 11.432 31.5872 11.176 31.9605 10.664C32.3338 10.152 32.5205 9.49067 32.5205 8.68C32.5205 7.84267 32.3312 7.176 31.9525 6.68C31.5738 6.17867 31.0058 5.928 30.2485 5.928C29.7312 5.928 29.3045 6.04533 28.9685 6.28C28.6378 6.50933 28.3925 6.832 28.2325 7.248C28.0725 7.65867 27.9925 8.136 27.9925 8.68C27.9925 9.51733 28.1818 10.1867 28.5605 10.688C28.9445 11.184 29.5072 11.432 30.2485 11.432ZM40.4751 13.24C39.6325 13.24 38.9258 13.04 38.3551 12.64C37.7845 12.24 37.3551 11.696 37.0671 11.008C36.7791 10.3147 36.6351 9.53867 36.6351 8.68C36.6351 7.81067 36.7791 7.032 37.0671 6.344C37.3551 5.656 37.7765 5.11467 38.3311 4.72C38.8911 4.32 39.5818 4.12 40.4031 4.12C41.2191 4.12 41.9258 4.32 42.5231 4.72C43.1258 5.11467 43.5925 5.656 43.9231 6.344C44.2538 7.02667 44.4191 7.80533 44.4191 8.68C44.4191 9.544 44.2565 10.32 43.9311 11.008C43.6058 11.696 43.1471 12.24 42.5551 12.64C41.9631 13.04 41.2698 13.24 40.4751 13.24ZM36.3071 16.84V4.36H38.0111V10.424H38.2511V16.84H36.3071ZM40.1791 11.512C40.6805 11.512 41.0938 11.3867 41.4191 11.136C41.7445 10.8853 41.9845 10.5467 42.1391 10.12C42.2991 9.688 42.3791 9.208 42.3791 8.68C42.3791 8.15733 42.2991 7.68267 42.1391 7.256C41.9791 6.824 41.7311 6.48267 41.3951 6.232C41.0591 5.976 40.6325 5.848 40.1151 5.848C39.6245 5.848 39.2245 5.968 38.9151 6.208C38.6058 6.44267 38.3765 6.77333 38.2271 7.2C38.0831 7.62133 38.0111 8.11467 38.0111 8.68C38.0111 9.24 38.0831 9.73333 38.2271 10.16C38.3765 10.5867 38.6085 10.92 38.9231 11.16C39.2431 11.3947 39.6618 11.512 40.1791 11.512ZM46.19 13V11.024H48.166V13H46.19ZM50.7294 13V4.36H52.4334V6.464L52.2254 6.192C52.332 5.904 52.4734 5.64267 52.6494 5.408C52.8307 5.168 53.0467 4.97067 53.2974 4.816C53.5107 4.672 53.7454 4.56 54.0014 4.48C54.2627 4.39467 54.5294 4.344 54.8014 4.328C55.0734 4.30667 55.3374 4.31733 55.5934 4.36V6.16C55.3374 6.08533 55.0414 6.06133 54.7054 6.088C54.3747 6.11467 54.076 6.208 53.8094 6.368C53.5427 6.512 53.324 6.696 53.1534 6.92C52.988 7.144 52.8654 7.4 52.7854 7.688C52.7054 7.97067 52.6654 8.27733 52.6654 8.608V13H50.7294ZM60.36 13.248C59.72 13.248 59.192 13.1413 58.776 12.928C58.36 12.7147 58.0293 12.4427 57.784 12.112C57.5387 11.7813 57.3573 11.4293 57.24 11.056C57.1227 10.6827 57.0453 10.3307 57.008 10C56.976 9.664 56.96 9.392 56.96 9.184V4.36H58.912V8.52C58.912 8.78667 58.9307 9.088 58.968 9.424C59.0053 9.75467 59.0907 10.0747 59.224 10.384C59.3627 10.688 59.5653 10.9387 59.832 11.136C60.104 11.3333 60.4693 11.432 60.928 11.432C61.1733 11.432 61.416 11.392 61.656 11.312C61.896 11.232 62.112 11.096 62.304 10.904C62.5013 10.7067 62.6587 10.4373 62.776 10.096C62.8933 9.75467 62.952 9.32267 62.952 8.8L64.096 9.288C64.096 10.024 63.952 10.6907 63.664 11.288C63.3813 11.8853 62.9627 12.3627 62.408 12.72C61.8533 13.072 61.1707 13.248 60.36 13.248ZM63.184 13V10.32H62.952V4.36H64.888V13H63.184Z" fill="#232323"/>
</g>
<path d="M9 27.5L11.0206 33.7188H17.5595L12.2694 37.5623L14.2901 43.7812L9 39.9377L3.70993 43.7812L5.73056 37.5623L0.440492 33.7188H6.97937L9 27.5Z" fill="#EA9537"/>
<path d="M31 27.5L33.0206 33.7188H39.5595L34.2694 37.5623L36.2901 43.7812L31 39.9377L25.7099 43.7812L27.7306 37.5623L22.4405 33.7188H28.9794L31 27.5Z" fill="#EA9537"/>
<path d="M53 27.5L55.0206 33.7188H61.5595L56.2694 37.5623L58.2901 43.7812L53 39.9377L47.7099 43.7812L49.7306 37.5623L44.4405 33.7188H50.9794L53 27.5Z" fill="#EA9537"/>
<path d="M75 27.5L77.0206 33.7188H83.5595L78.2694 37.5623L80.2901 43.7812L75 39.9377L69.7099 43.7812L71.7306 37.5623L66.4405 33.7188H72.9794L75 27.5Z" fill="#EA9537"/>
<mask id="mask0_514_1003" style="mask-type:alpha" maskUnits="userSpaceOnUse" x="88" y="25" width="9" height="20">
<rect x="88" y="25.5" width="9" height="19" fill="#D9D9D9"/>
</mask>
<g mask="url(#mask0_514_1003)">
<path d="M97 27L99.0206 33.2188H105.56L100.269 37.0623L102.29 43.2812L97 39.4377L91.7099 43.2812L93.7306 37.0623L88.4405 33.2188H94.9794L97 27Z" fill="#EA9537"/>
</g>
<path opacity="0.5" d="M97 27L99.0206 33.2188H105.56L100.269 37.0623L102.29 43.2812L97 39.4377L91.7099 43.2812L93.7306 37.0623L88.4405 33.2188H94.9794L97 27Z" fill="#EA9537"/>
<path d="M121.192 43V40.768H115.8V39.648L119.656 31.48H120.976L117.12 39.648H121.192V36.288H122.376V39.648H123.632V40.768H122.376V43H121.192ZM125.469 43V41.632H126.837V43H125.469ZM128.988 42.992L128.996 41.92L134.204 37.216C134.652 36.8107 134.948 36.4267 135.092 36.064C135.241 35.696 135.316 35.312 135.316 34.912C135.316 34.4373 135.204 34.008 134.98 33.624C134.756 33.24 134.454 32.936 134.076 32.712C133.697 32.4827 133.273 32.368 132.804 32.368C132.313 32.368 131.876 32.4853 131.492 32.72C131.108 32.9547 130.804 33.264 130.58 33.648C130.361 34.032 130.254 34.4507 130.26 34.904H129.06C129.06 34.2053 129.225 33.5787 129.556 33.024C129.886 32.4693 130.334 32.0347 130.9 31.72C131.465 31.4 132.105 31.24 132.82 31.24C133.518 31.24 134.145 31.4053 134.7 31.736C135.26 32.0613 135.7 32.504 136.02 33.064C136.345 33.6187 136.508 34.2373 136.508 34.92C136.508 35.4 136.449 35.824 136.332 36.192C136.22 36.5547 136.041 36.8933 135.796 37.208C135.556 37.5173 135.249 37.8373 134.876 38.168L130.252 42.344L130.068 41.864H136.508V42.992H128.988ZM148.5 34.36V43H147.356V36.272L142.62 43H141.628V34.36H142.772V41.032L147.516 34.36H148.5ZM153.857 43.24C152.988 43.24 152.228 43.0507 151.577 42.672C150.932 42.288 150.422 41.7573 150.049 41.08L150.993 40.48C151.308 41.0133 151.7 41.4187 152.169 41.696C152.638 41.9733 153.177 42.112 153.785 42.112C154.42 42.112 154.929 41.9653 155.313 41.672C155.697 41.3787 155.889 40.976 155.889 40.464C155.889 40.112 155.806 39.832 155.641 39.624C155.481 39.416 155.236 39.2667 154.905 39.176C154.58 39.0853 154.172 39.04 153.681 39.04H152.657V38.032H153.665C154.262 38.032 154.742 37.9253 155.105 37.712C155.473 37.4933 155.657 37.152 155.657 36.688C155.657 36.1973 155.473 35.8347 155.105 35.6C154.742 35.36 154.308 35.24 153.801 35.24C153.289 35.24 152.804 35.3467 152.345 35.56C151.892 35.768 151.51 36.0373 151.201 36.368L150.449 35.576C150.881 35.1013 151.385 34.7413 151.961 34.496C152.542 34.2453 153.185 34.12 153.889 34.12C154.444 34.12 154.945 34.2187 155.393 34.416C155.846 34.608 156.204 34.8907 156.465 35.264C156.732 35.6373 156.865 36.0853 156.865 36.608C156.865 37.0987 156.745 37.5227 156.505 37.88C156.27 38.2373 155.937 38.5333 155.505 38.768L155.441 38.328C155.814 38.3973 156.124 38.5467 156.369 38.776C156.614 39.0053 156.796 39.28 156.913 39.6C157.03 39.92 157.089 40.2453 157.089 40.576C157.089 41.1253 156.945 41.6 156.657 42C156.374 42.3947 155.988 42.7013 155.497 42.92C155.012 43.1333 154.465 43.24 153.857 43.24ZM165.457 43.24C164.86 43.24 164.308 43.1173 163.802 42.872C163.295 42.6267 162.863 42.288 162.506 41.856C162.148 41.424 161.892 40.928 161.738 40.368L162.866 40.064C162.967 40.48 163.151 40.84 163.418 41.144C163.684 41.4427 163.996 41.6747 164.354 41.84C164.716 42.0053 165.095 42.088 165.49 42.088C166.002 42.088 166.46 41.9653 166.866 41.72C167.276 41.4693 167.602 41.1387 167.842 40.728C168.082 40.3173 168.202 39.8667 168.202 39.376C168.202 38.8693 168.076 38.4133 167.826 38.008C167.575 37.5973 167.244 37.272 166.834 37.032C166.423 36.792 165.975 36.672 165.49 36.672C164.946 36.672 164.476 36.792 164.082 37.032C163.687 37.2667 163.372 37.5627 163.138 37.92L162.066 37.472L162.418 31.48H168.57V32.608H162.938L163.522 32.056L163.21 37.168L162.914 36.776C163.244 36.3973 163.644 36.1013 164.114 35.888C164.583 35.6747 165.076 35.568 165.594 35.568C166.303 35.568 166.943 35.7387 167.514 36.08C168.084 36.416 168.538 36.872 168.874 37.448C169.21 38.024 169.378 38.6667 169.378 39.376C169.378 40.08 169.199 40.7253 168.842 41.312C168.484 41.8933 168.01 42.36 167.418 42.712C166.826 43.064 166.172 43.24 165.457 43.24Z" fill="#232323"/>
<defs>
<clipPath id="clip0_514_1003">
<rect width="178" height="15" fill="white"/>
</clipPath>
</defs>
</svg>

<svg width="178" height="49" fill="none" xmlns="http://www.w3.org/2000/svg"><g clip-path="url(#a)"><path d="M4.416 13.216c-.576 0-1.12-.112-1.632-.336a3.953 3.953 0 0 1-1.336-.952 3.681 3.681 0 0 1-.808-1.456l1.864-.504c.133.459.376.813.728 1.064.357.245.75.365 1.176.36.379 0 .717-.088 1.016-.264.299-.176.533-.413.704-.712A2.04 2.04 0 0 0 6.384 9.4c0-.57-.184-1.048-.552-1.432-.368-.384-.843-.576-1.424-.576-.176 0-.35.024-.52.072a2.345 2.345 0 0 0-.48.2l-.88-1.52L6.4 2.832l.168.464h-5.48V1.48h7.064v1.824L5.04 6.296l-.016-.568c.699.048 1.293.243 1.784.584.496.341.875.781 1.136 1.32.267.539.4 1.128.4 1.768 0 .725-.179 1.376-.536 1.952a3.853 3.853 0 0 1-1.424 1.368 3.966 3.966 0 0 1-1.968.496Zm5.68-.232v-1.68l4.929-4.392c.384-.341.65-.664.8-.968.15-.304.224-.597.224-.88A2.08 2.08 0 0 0 15.8 4.04a1.861 1.861 0 0 0-1.688-.984c-.4 0-.755.093-1.064.28a1.942 1.942 0 0 0-.712.728c-.17.304-.25.632-.24.984h-1.984c0-.768.17-1.437.512-2.008a3.56 3.56 0 0 1 1.424-1.328c.608-.315 1.31-.472 2.104-.472.736 0 1.397.165 1.984.496a3.57 3.57 0 0 1 1.384 1.36c.336.576.504 1.24.504 1.992 0 .55-.075 1.01-.224 1.384-.15.373-.373.717-.672 1.032-.294.315-.659.664-1.096 1.048l-3.496 3.096-.176-.48h5.664v1.816h-7.928ZM25.013 13c-.57.107-1.13.152-1.68.136a3.85 3.85 0 0 1-1.464-.296 2.029 2.029 0 0 1-.984-.904 2.577 2.577 0 0 1-.312-1.144c-.01-.39-.016-.83-.016-1.32V1.96h1.92v7.4c0 .347.003.65.008.912.01.261.067.475.168.64.192.32.499.499.92.536a6.18 6.18 0 0 0 1.44-.064V13Zm-6.024-7.128V4.36h6.024v1.512h-6.024Zm11.26 7.368c-.864 0-1.618-.195-2.264-.584a4.01 4.01 0 0 1-1.504-1.608c-.352-.688-.527-1.477-.527-2.368 0-.907.18-1.701.544-2.384a4.012 4.012 0 0 1 1.512-1.6c.645-.384 1.392-.576 2.24-.576.869 0 1.626.195 2.271.584.646.39 1.147.928 1.505 1.616.357.683.535 1.47.535 2.36 0 .896-.18 1.688-.544 2.376a4.01 4.01 0 0 1-1.503 1.608c-.646.384-1.4.576-2.264.576Zm0-1.808c.768 0 1.34-.256 1.712-.768.374-.512.56-1.173.56-1.984 0-.837-.189-1.504-.568-2-.378-.501-.946-.752-1.704-.752-.517 0-.944.117-1.28.352-.33.23-.576.552-.735.968-.16.41-.24.888-.24 1.432 0 .837.189 1.507.568 2.008.384.496.946.744 1.688.744Zm10.227 1.808c-.843 0-1.55-.2-2.12-.6-.57-.4-1-.944-1.288-1.632-.288-.693-.432-1.47-.432-2.328 0-.87.144-1.648.432-2.336.288-.688.71-1.23 1.264-1.624.56-.4 1.25-.6 2.072-.6.816 0 1.523.2 2.12.6.603.395 1.07.936 1.4 1.624.33.683.496 1.461.496 2.336 0 .864-.162 1.64-.488 2.328a3.971 3.971 0 0 1-1.376 1.632c-.592.4-1.285.6-2.08.6Zm-4.168 3.6V4.36h1.704v6.064h.24v6.416h-1.944Zm3.872-5.328c.502 0 .915-.125 1.24-.376.326-.25.566-.59.72-1.016.16-.432.24-.912.24-1.44 0-.523-.08-.997-.24-1.424a2.19 2.19 0 0 0-.744-1.024c-.336-.256-.763-.384-1.28-.384-.49 0-.89.12-1.2.36-.31.235-.538.565-.688.992-.144.421-.216.915-.216 1.48 0 .56.072 1.053.216 1.48.15.427.382.76.696 1 .32.235.739.352 1.256.352ZM46.19 13v-1.976h1.976V13H46.19Zm4.54 0V4.36h1.703v2.104l-.208-.272a3.08 3.08 0 0 1 .424-.784 2.36 2.36 0 0 1 .648-.592c.214-.144.448-.256.704-.336.262-.085.528-.136.8-.152.272-.021.536-.01.792.032v1.8a2.473 2.473 0 0 0-.888-.072c-.33.027-.629.12-.896.28a2.013 2.013 0 0 0-.656.552c-.165.224-.288.48-.368.768-.08.283-.12.59-.12.92V13H50.73Zm9.63.248c-.64 0-1.168-.107-1.584-.32a2.797 2.797 0 0 1-.992-.816 3.553 3.553 0 0 1-.544-1.056A5.651 5.651 0 0 1 57.008 10a8.993 8.993 0 0 1-.048-.816V4.36h1.952v4.16c0 .267.019.568.056.904.037.33.123.65.256.96.139.304.341.555.608.752.272.197.637.296 1.096.296.245 0 .488-.04.728-.12.24-.08.456-.216.648-.408.197-.197.355-.467.472-.808.117-.341.176-.773.176-1.296l1.144.488c0 .736-.144 1.403-.432 2a3.402 3.402 0 0 1-1.256 1.432c-.555.352-1.237.528-2.048.528ZM63.184 13v-2.68h-.232V4.36h1.936V13h-1.704Z" fill="#232323"/></g><path d="m9 27.5 2.02 6.219h6.54l-5.29 3.843 2.02 6.22L9 39.937 3.71 43.78l2.02-6.219L.44 33.72h6.54L9 27.5ZM31 27.5l2.02 6.219h6.54l-5.29 3.843 2.02 6.22L31 39.937l-5.29 3.843 2.02-6.219-5.29-3.843h6.54L31 27.5ZM53 27.5l2.02 6.219h6.54l-5.29 3.843 2.02 6.22L53 39.937l-5.29 3.843 2.02-6.219-5.29-3.843h6.54L53 27.5ZM75 27.5l2.02 6.219h6.54l-5.29 3.843 2.02 6.22L75 39.937l-5.29 3.843 2.02-6.219-5.29-3.843h6.54L75 27.5Z" fill="#EA9537"/><mask id="b" style="mask-type:alpha" maskUnits="userSpaceOnUse" x="88" y="25" width="9" height="20"><path fill="#D9D9D9" d="M88 25.5h9v19h-9z"/></mask><g mask="url(#b)"><path d="m97 27 2.02 6.219h6.54l-5.291 3.843 2.021 6.22L97 39.437l-5.29 3.843 2.02-6.219-5.29-3.843h6.54L97 27Z" fill="#EA9537"/></g><path opacity=".5" d="m97 27 2.02 6.219h6.54l-5.291 3.843 2.021 6.22L97 39.437l-5.29 3.843 2.02-6.219-5.29-3.843h6.54L97 27Z" fill="#EA9537"/><path d="M121.192 43v-2.232H115.8v-1.12l3.856-8.168h1.32l-3.856 8.168h4.072v-3.36h1.184v3.36h1.256v1.12h-1.256V43h-1.184Zm4.277 0v-1.368h1.368V43h-1.368Zm3.519-.008.008-1.072 5.208-4.704c.448-.405.744-.79.888-1.152.149-.368.224-.752.224-1.152a2.509 2.509 0 0 0-1.24-2.2 2.41 2.41 0 0 0-1.272-.344c-.491 0-.928.117-1.312.352a2.62 2.62 0 0 0-.912.928 2.425 2.425 0 0 0-.32 1.256h-1.2c0-.699.165-1.325.496-1.88.33-.555.778-.99 1.344-1.304.565-.32 1.205-.48 1.92-.48.698 0 1.325.165 1.88.496.56.325 1 .768 1.32 1.328.325.555.488 1.173.488 1.856a4.2 4.2 0 0 1-.176 1.272 3.167 3.167 0 0 1-.536 1.016c-.24.31-.547.63-.92.96l-4.624 4.176-.184-.48h6.44v1.128h-7.52ZM148.5 34.36V43h-1.144v-6.728L142.62 43h-.992v-8.64h1.144v6.672l4.744-6.672h.984Zm5.357 8.88c-.869 0-1.629-.19-2.28-.568a4.14 4.14 0 0 1-1.528-1.592l.944-.6c.315.533.707.939 1.176 1.216s1.008.416 1.616.416c.635 0 1.144-.147 1.528-.44.384-.293.576-.696.576-1.208 0-.352-.083-.632-.248-.84-.16-.208-.405-.357-.736-.448-.325-.09-.733-.136-1.224-.136h-1.024v-1.008h1.008c.597 0 1.077-.107 1.44-.32.368-.219.552-.56.552-1.024 0-.49-.184-.853-.552-1.088-.363-.24-.797-.36-1.304-.36-.512 0-.997.107-1.456.32a3.6 3.6 0 0 0-1.144.808l-.752-.792a4.307 4.307 0 0 1 1.512-1.08 4.818 4.818 0 0 1 1.928-.376c.555 0 1.056.099 1.504.296.453.192.811.475 1.072.848.267.373.4.821.4 1.344 0 .49-.12.915-.36 1.272-.235.357-.568.653-1 .888l-.064-.44c.373.07.683.219.928.448.245.23.427.504.544.824.117.32.176.645.176.976 0 .55-.144 1.024-.432 1.424a2.783 2.783 0 0 1-1.16.92c-.485.213-1.032.32-1.64.32Zm11.6 0a3.744 3.744 0 0 1-1.655-.368 3.82 3.82 0 0 1-1.296-1.016 3.94 3.94 0 0 1-.768-1.488l1.128-.304c.101.416.285.776.552 1.08.266.299.578.53.936.696.362.165.741.248 1.136.248.512 0 .97-.123 1.376-.368.41-.25.736-.581.976-.992.24-.41.36-.861.36-1.352 0-.507-.126-.963-.376-1.368a2.812 2.812 0 0 0-.992-.976 2.618 2.618 0 0 0-1.344-.36c-.544 0-1.014.12-1.408.36-.395.235-.71.53-.944.888l-1.072-.448.352-5.992h6.152v1.128h-5.632l.584-.552-.312 5.112-.296-.392c.33-.379.73-.675 1.2-.888.469-.213.962-.32 1.48-.32.709 0 1.349.17 1.92.512a3.764 3.764 0 0 1 1.864 3.296c0 .704-.179 1.35-.536 1.936a4.12 4.12 0 0 1-1.424 1.4 3.766 3.766 0 0 1-1.961.528Z" fill="#232323"/><defs><clipPath id="a"><path fill="#fff" d="M0 0h178v15H0z"/></clipPath></defs></svg>
